svg/aws-elasticache.svg

<?xml version="1.0" encoding="UTF-8"?>
<svg xmlns="http://www.w3.org/2000/svg" xmlns:xlink="http://www.w3.org/1999/xlink" width="32" height="32" viewBox="0 0 32 32">
<path fill-rule="nonzero" fill="rgb(100%, 100%, 100%)" fill-opacity="1" d="M 0.203125 0.203125 L 32.203125 0.203125 L 32.203125 32.203125 L 0.203125 32.203125 Z M 0.203125 0.203125 "/>
<path fill-rule="nonzero" fill="rgb(78.823529%, 14.509804%, 81.960784%)" fill-opacity="1" d="M 0.203125 0.203125 L 31.796875 0.203125 L 31.796875 31.796875 L 0.203125 31.796875 Z M 0.203125 0.203125 "/>
<path fill-rule="nonzero" fill="rgb(100%, 100%, 100%)" fill-opacity="1" d="M 20.964844 25.503906 L 20.964844 22.863281 C 19.820312 23.597656 17.761719 23.953125 15.800781 23.953125 C 13.660156 23.953125 11.992188 23.574219 11.035156 22.933594 L 11.035156 25.503906 C 11.035156 26.269531 12.816406 27.058594 15.800781 27.058594 C 18.84375 27.058594 20.964844 26.238281 20.964844 25.503906 M 15.800781 19.9375 C 13.660156 19.9375 11.992188 19.566406 11.035156 18.925781 L 11.035156 21.5 C 11.050781 22.261719 12.828125 23.046875 15.800781 23.046875 C 18.835938 23.046875 20.949219 22.234375 20.964844 21.5 L 20.964844 18.847656 C 19.820312 19.589844 17.761719 19.9375 15.800781 19.9375 M 20.964844 17.488281 L 20.964844 14.433594 C 19.820312 15.171875 17.761719 15.523438 15.800781 15.523438 C 13.660156 15.523438 11.992188 15.148438 11.035156 14.507812 L 11.035156 17.488281 C 11.050781 18.25 12.828125 19.035156 15.800781 19.035156 C 18.835938 19.035156 20.949219 18.21875 20.964844 17.488281 M 11.035156 13.0625 L 11.035156 13.070312 C 11.050781 13.832031 12.828125 14.617188 15.800781 14.617188 C 19.113281 14.617188 20.949219 13.707031 20.964844 13.070312 L 20.964844 13.0625 C 20.964844 12.425781 19.128906 11.507812 15.800781 11.507812 C 12.816406 11.507812 11.035156 12.296875 11.035156 13.0625 M 21.871094 13.074219 L 21.871094 25.503906 C 21.871094 27.191406 18.722656 27.960938 15.800781 27.960938 C 12.359375 27.960938 10.128906 26.996094 10.128906 25.503906 L 10.128906 13.0625 C 10.128906 11.570312 12.355469 10.605469 15.800781 10.605469 C 18.722656 10.605469 21.871094 11.375 21.871094 13.0625 Z M 28.1875 7.253906 C 28.308594 7.253906 28.421875 7.207031 28.503906 7.121094 C 28.589844 7.035156 28.636719 6.921875 28.636719 6.800781 L 28.636719 4.492188 C 28.636719 4.242188 28.433594 4.039062 28.1875 4.039062 L 3.8125 4.039062 C 3.566406 4.039062 3.363281 4.242188 3.363281 4.492188 L 3.363281 6.800781 C 3.363281 7.050781 3.566406 7.253906 3.8125 7.253906 C 4.363281 7.253906 4.8125 7.699219 4.8125 8.246094 C 4.8125 8.792969 4.363281 9.238281 3.8125 9.238281 C 3.566406 9.238281 3.363281 9.441406 3.363281 9.6875 L 3.363281 18.9375 C 3.363281 19.183594 3.566406 19.386719 3.8125 19.386719 L 8.328125 19.386719 L 8.328125 18.484375 L 6.070312 18.484375 L 6.070312 17.128906 L 8.328125 17.128906 L 8.328125 16.226562 L 5.617188 16.226562 C 5.371094 16.226562 5.167969 16.429688 5.167969 16.675781 L 5.167969 18.484375 L 4.265625 18.484375 L 4.265625 10.085938 C 5.113281 9.878906 5.710938 9.121094 5.714844 8.246094 C 5.714844 7.355469 5.09375 6.605469 4.265625 6.402344 L 4.265625 4.941406 L 27.734375 4.941406 L 27.734375 6.402344 C 26.886719 6.613281 26.289062 7.371094 26.285156 8.246094 C 26.285156 9.136719 26.90625 9.882812 27.734375 10.085938 L 27.734375 18.484375 L 26.832031 18.484375 L 26.832031 16.675781 C 26.832031 16.429688 26.628906 16.226562 26.382812 16.226562 L 23.671875 16.226562 L 23.671875 17.128906 L 25.929688 17.128906 L 25.929688 18.484375 L 23.671875 18.484375 L 23.671875 19.386719 L 28.1875 19.386719 C 28.433594 19.386719 28.636719 19.183594 28.636719 18.9375 L 28.636719 9.6875 C 28.636719 9.441406 28.433594 9.238281 28.1875 9.238281 C 27.636719 9.238281 27.1875 8.792969 27.1875 8.246094 C 27.1875 7.699219 27.636719 7.253906 28.1875 7.253906 M 10.585938 10.359375 L 10.585938 6.75 C 10.585938 6.628906 10.539062 6.511719 10.453125 6.425781 C 10.367188 6.339844 10.25 6.292969 10.128906 6.292969 L 7.425781 6.292969 C 7.304688 6.292969 7.1875 6.339844 7.101562 6.425781 C 7.019531 6.511719 6.972656 6.628906 6.972656 6.75 L 6.972656 14.421875 C 6.972656 14.671875 7.171875 14.875 7.425781 14.875 L 8.777344 14.875 L 8.777344 13.96875 L 7.875 13.96875 L 7.875 7.199219 L 9.679688 7.199219 L 9.679688 10.359375 Z M 24.125 13.96875 L 23.671875 13.96875 L 23.671875 14.875 L 24.574219 14.875 C 24.695312 14.875 24.808594 14.828125 24.894531 14.746094 C 24.980469 14.660156 25.027344 14.542969 25.027344 14.421875 L 25.027344 6.75 C 25.027344 6.628906 24.980469 6.511719 24.894531 6.425781 C 24.808594 6.339844 24.695312 6.292969 24.574219 6.292969 L 21.871094 6.292969 C 21.75 6.292969 21.632812 6.339844 21.546875 6.425781 C 21.460938 6.511719 21.414062 6.628906 21.414062 6.75 L 21.414062 10.359375 L 22.320312 10.359375 L 22.320312 7.199219 L 24.125 7.199219 Z M 20.511719 9.90625 L 20.511719 6.75 C 20.511719 6.5 20.3125 6.296875 20.0625 6.292969 L 16.902344 6.292969 C 16.78125 6.292969 16.664062 6.339844 16.578125 6.425781 C 16.496094 6.511719 16.445312 6.628906 16.449219 6.75 L 16.449219 9.453125 L 17.351562 9.453125 L 17.351562 7.199219 L 19.609375 7.199219 L 19.609375 9.90625 Z M 14.648438 9.453125 L 14.648438 7.199219 L 12.390625 7.199219 L 12.390625 9.90625 L 11.488281 9.90625 L 11.488281 6.75 C 11.488281 6.496094 11.691406 6.292969 11.9375 6.292969 L 15.097656 6.292969 C 15.347656 6.292969 15.550781 6.496094 15.550781 6.75 L 15.550781 9.453125 Z M 14.648438 9.453125 "/>
</svg>

<svg role="img" viewBox="0 0 32 32" height="32" width="32" xmlns="http://www.w3.org/2000/svg"><path d="M.203.203h32v32h-32Zm0 0" fill="rgb(100%, 100%, 100%)"/><path d="M.203.203h31.594v31.594H.203Zm0 0" fill="rgb(78.823529%, 14.509804%, 81.960784%)"/><path d="M20.965 25.504v-2.64c-1.145.734-3.203 1.09-5.164 1.09-2.14 0-3.809-.38-4.766-1.02v2.57c0 .766 1.781 1.555 4.766 1.555 3.043 0 5.164-.82 5.164-1.555M15.8 19.937c-2.14 0-3.809-.37-4.766-1.011V21.5c.016.762 1.793 1.547 4.766 1.547 3.035 0 5.148-.813 5.164-1.547v-2.652c-1.145.742-3.203 1.09-5.164 1.09m5.164-2.45v-3.054c-1.145.738-3.203 1.09-5.164 1.09-2.14 0-3.809-.376-4.766-1.016v2.98c.016.762 1.793 1.547 4.766 1.547 3.035 0 5.148-.816 5.164-1.547m-9.93-4.425v.007c.016.762 1.793 1.547 4.766 1.547 3.312 0 5.148-.91 5.164-1.547v-.008c0-.636-1.836-1.554-5.164-1.554-2.985 0-4.766.789-4.766 1.555m10.836.011v12.43c0 1.687-3.148 2.457-6.07 2.457-3.442 0-5.672-.965-5.672-2.457V13.062c0-1.492 2.226-2.457 5.672-2.457 2.922 0 6.07.77 6.07 2.457Zm6.317-5.82a.434.434 0 0 0 .316-.133.45.45 0 0 0 .133-.32V4.492a.453.453 0 0 0-.45-.453H3.814a.453.453 0 0 0-.45.453v2.309c0 .25.203.453.45.453.55 0 1 .445 1 .992 0 .547-.45.992-1 .992a.452.452 0 0 0-.45.45v9.25c0 .246.203.449.45.449h4.515v-.903H6.07V17.13h2.258v-.902h-2.71a.452.452 0 0 0-.45.449v1.808h-.902v-8.398a1.9 1.9 0 0 0 1.449-1.84c0-.89-.621-1.64-1.45-1.844v-1.46h23.47v1.46a1.909 1.909 0 0 0-1.45 1.844c0 .89.621 1.637 1.45 1.84v8.398h-.903v-1.808a.452.452 0 0 0-.45-.45h-2.71v.903h2.258v1.355h-2.258v.903h4.515c.247 0 .45-.203.45-.45v-9.25a.452.452 0 0 0-.45-.449c-.55 0-1-.445-1-.992 0-.547.45-.992 1-.992M10.586 10.36V6.75a.458.458 0 0 0-.133-.324.458.458 0 0 0-.324-.133H7.426a.458.458 0 0 0-.324.133.472.472 0 0 0-.13.324v7.672c0 .25.2.453.454.453h1.351v-.906h-.902v-6.77H9.68v3.16Zm13.539 3.61h-.453v.906h.902a.462.462 0 0 0 .32-.129.458.458 0 0 0 .133-.324V6.75a.458.458 0 0 0-.132-.324.45.45 0 0 0-.32-.133H21.87a.458.458 0 0 0-.324.133.458.458 0 0 0-.133.324v3.61h.906V7.2h1.805Zm-3.613-4.063V6.75c0-.25-.2-.453-.45-.457h-3.16a.458.458 0 0 0-.324.133.454.454 0 0 0-.129.324v2.703h.903V7.2h2.257v2.707Zm-5.864-.453V7.2h-2.257v2.707h-.903V6.75c0-.254.203-.457.45-.457h3.16c.25 0 .453.203.453.457v2.703Zm0 0" fill="rgb(100%, 100%, 100%)"/></svg>
